X: 85
T: Glädjens blomster (visa)
S: efter Johan August Ericsson
B: SMUS - katalog M19 bild 18 (nr 85)
B: [[Notböcker/Johan August Ericssons notbok]]
B: Jämför SMUS - katalog M187a bild 38 nr 144.
O: Södermanland
R: Visa
Z: Nils L, 2011-11-18
M:3/4
L:1/8
K:Gm
G>A B2 G>B | A>^F D2 F>G | A>B G4 ::
B>c d2 B>d | dd A4 | d2 c>B "punkterad?"A>G | G2 ^F2 z2 | 
GA BA cB | AG BA G^F | ^F2 G2 z2 :|

